svgs/sharp-regular/dagger.svg

<svg xmlns="http://www.w3.org/2000/svg" viewBox="0 0 384 512"><!--! Font Awesome Pro 6.6.0 by @fontawesome - https://fontawesome.com License - https://fontawesome.com/license (Commercial License) Copyright 2024 Fonticons, Inc. --><path d="M216 0l0 24 0 104 8 0 48 0 40 0 24 0 48 0 0 48c0 26.5-21.5 48-48 48s-48-21.5-48-48l-16 0-48 0-32 0-32 0-48 0-16 0c0 26.5-21.5 48-48 48s-48-21.5-48-48l0-48 48 0 24 0 40 0 48 0 8 0 0-104 0-24 48 0zM160 398.6L192 437l32-38.4L224 208l48 0 0 208-48.8 58.5L192 512l-31.2-37.5L112 416l0-208 48 0 0 190.6z"/></svg>

<svg xmlns="http://www.w3.org/2000/svg" viewBox="0 0 384 512"><!--! Font Awesome Pro 6.4.0 by @fontawesome - https://fontawesome.com License - https://fontawesome.com/license (Commercial License) Copyright 2023 Fonticons, Inc. --><path d="M216 0V24 128h8 48 40 24 48v48c0 26.5-21.5 48-48 48s-48-21.5-48-48H272 224 192 160 112 96c0 26.5-21.5 48-48 48s-48-21.5-48-48V128H48 72h40 48 8V24 0h48zM160 398.6L192 437l32-38.4V208h48V416l-48.8 58.5L192 512l-31.2-37.5L112 416V208h48V398.6z"/></svg>
